public/img/icon/refresh.svg

<svg fill="none" height="20" viewBox="0 0 20 20" width="20" xmlns="http://www.w3.org/2000/svg"><path d="m10.0321 15.5834c-1.55045 0-2.86858-.5429-3.95441-1.6286-1.08597-1.0857-1.62896-2.4035-1.62896-3.9535 0-1.55003.54299-2.86829 1.62896-3.95482 1.08583-1.08653 2.40396-1.62979 3.95441-1.62979.9187 0 1.7609.20618 2.5264.61854.7654.4125 1.4019.95791 1.9094 1.63625v-2.25479h1.0833v4.26271h-4.2627v-1.08313h2.5209c-.3975-.63792-.9267-1.14674-1.5875-1.52646-.6607-.37986-1.3907-.56979-2.1898-.56979-1.25004 0-2.31254.4375-3.18754 1.3125s-1.3125 1.9375-1.3125 3.18748c0 1.25.4375 2.3125 1.3125 3.1875s1.9375 1.3125 3.18754 1.3125c1.1666 0 2.1666-.3854 3-1.1562.8333-.7709 1.3125-1.7188 1.4375-2.8438h1.1089c-.1143 1.4434-.6995 2.6514-1.7556 3.6242s-2.3197 1.4592-3.7908 1.4592z" fill="#000"/></svg>

<svg width="20" height="20" viewBox="0 0 20 20" fill="none" xmlns="http://www.w3.org/2000/svg">
<path d="M10.0321 15.5834C8.48165 15.5834 7.16352 15.0405 6.07769 13.9548C4.99172 12.8691 4.44873 11.5513 4.44873 10.0013C4.44873 8.45127 4.99172 7.13301 6.07769 6.04648C7.16352 4.95995 8.48165 4.41669 10.0321 4.41669C10.9508 4.41669 11.793 4.62287 12.5585 5.03523C13.3239 5.44773 13.9604 5.99314 14.4679 6.67148V4.41669H15.5512V8.6794H11.2885V7.59627H13.8094C13.4119 6.95835 12.8827 6.44953 12.2219 6.06981C11.5612 5.68995 10.8312 5.50002 10.0321 5.50002C8.78206 5.50002 7.71956 5.93752 6.84456 6.81252C5.96956 7.68752 5.53206 8.75002 5.53206 10C5.53206 11.25 5.96956 12.3125 6.84456 13.1875C7.71956 14.0625 8.78206 14.5 10.0321 14.5C11.1987 14.5 12.1987 14.1146 13.0321 13.3438C13.8654 12.5729 14.3446 11.625 14.4696 10.5H15.5785C15.4642 11.9434 14.879 13.1514 13.8229 14.1242C12.7668 15.097 11.5032 15.5834 10.0321 15.5834Z" fill="black"/>
</svg>
